img/client2-logo.svg

<svg width="170" height="90" viewBox="0 0 170 90" fill="none" xmlns="http://www.w3.org/2000/svg">
<rect x="0.5" y="0.5" width="169" height="89" rx="3.5" stroke="#AFB1B8"/>
<path d="M81.9769 21.9345H82.1135C82.3665 21.9345 82.6397 21.9599 82.9104 21.9828C84.103 22.067 85.2873 22.2455 86.452 22.5168V19.6535C85.2527 19.3526 84.0296 19.1578 82.7965 19.0712C82.3285 19.0356 81.8302 19.0127 81.3192 19H80.8917C78.4168 19.0093 75.9526 19.3271 73.5554 19.946C70.8252 20.6269 68.2046 21.6928 65.7715 23.1119V51.5086C68.1142 50.2357 70.607 49.2643 73.1912 48.6173C75.2315 48.0967 77.3174 47.7765 79.4193 47.6612H79.5028C79.8545 47.6434 80.2061 47.6332 80.5678 47.6306V44.7216C77.8366 44.7567 75.1192 45.1178 72.4727 45.7972C71.4937 46.0515 70.5476 46.3261 69.6597 46.6313L68.6478 46.9746V24.8334L69.0804 24.6249C72.3816 23.0595 75.9521 22.1486 79.5964 21.9421C79.6267 21.9399 79.6572 21.9399 79.6875 21.9421C80.0897 21.9218 80.4945 21.9116 80.8917 21.9116H81.3268H81.347C81.557 21.9167 81.7669 21.9218 81.9769 21.9345Z" fill="#AFB1B8"/>
<path d="M89.111 24.9326C88.4457 24.9326 87.788 24.9097 87.153 24.8614C86.3941 24.8054 85.6149 24.7139 84.8763 24.5893C84.426 24.513 83.9833 24.4215 83.5532 24.3223V52.3935C85.3739 52.8443 87.2435 53.0647 89.1186 53.0496C91.5933 53.0395 94.0573 52.7227 96.4548 52.1061C99.1856 51.4243 101.807 50.3585 104.241 48.9402V21.0496C101.899 22.3218 99.4071 23.294 96.8242 23.9434C94.3034 24.5908 91.7128 24.9231 89.111 24.9326ZM100.335 25.4183L101.347 25.0775V47.2263L100.915 47.4348C99.2554 48.2243 97.5226 48.8469 95.7414 49.2937C93.5784 49.8533 91.3547 50.1412 89.1211 50.1506C88.4533 50.1506 87.7905 50.1227 87.148 50.0667L86.4548 50.0057V47.3178V27.2288L87.2618 27.2822C87.8487 27.3204 88.4558 27.3382 89.1161 27.3382C91.9517 27.3281 94.7751 26.966 97.5224 26.26C98.4659 26.0108 99.4045 25.7311 100.335 25.4183Z" fill="#AFB1B8"/>
<path d="M67.7373 61.2124C67.5918 61.0615 67.4164 60.943 67.2225 60.8646C67.0286 60.7862 66.8204 60.7496 66.6115 60.7572C66.3889 60.7542 66.1679 60.7957 65.9614 60.8793C65.772 60.9547 65.5999 61.068 65.4554 61.2124C65.3126 61.3572 65.2014 61.5304 65.1291 61.721C65.0498 61.9207 65.0103 62.1341 65.0127 62.3491V66.1431C65.0037 66.4104 65.0547 66.6764 65.162 66.9212C65.2516 67.1156 65.3808 67.2889 65.5415 67.4298C65.6931 67.5575 65.8711 67.6495 66.0626 67.6994C66.2471 67.7512 66.4377 67.7777 66.6292 67.7782C66.8405 67.7803 67.0497 67.7351 67.2414 67.646C67.4311 67.563 67.6029 67.4438 67.7474 67.295C67.8883 67.1476 68.0006 66.9752 68.0788 66.7864C68.1599 66.5951 68.2012 66.3892 68.2002 66.1812V65.7566H67.2085V66.0948C67.2115 66.2103 67.1917 66.3252 67.1504 66.433C67.1181 66.5137 67.0689 66.5866 67.0062 66.6466C66.9447 66.6962 66.8743 66.7334 66.7987 66.7559C66.7318 66.7782 66.6618 66.7902 66.5913 66.7915C66.5028 66.8018 66.4131 66.7885 66.3313 66.7527C66.2496 66.717 66.1787 66.6602 66.1258 66.5881C66.0323 66.4356 65.9865 66.2585 65.9943 66.0795V62.5423C65.9881 62.3462 66.0298 62.1515 66.1157 61.9753C66.1672 61.8952 66.24 61.8313 66.3259 61.7908C66.4118 61.7503 66.5072 61.7349 66.6014 61.7464C66.6869 61.7434 66.7718 61.7612 66.8489 61.7984C66.926 61.8356 66.993 61.8911 67.0441 61.96C67.1551 62.1057 67.2131 62.2852 67.2085 62.4686V62.7966H68.1901V62.4101C68.1921 62.1831 68.1509 61.9578 68.0686 61.7464C67.9954 61.5476 67.8826 61.3659 67.7373 61.2124Z" fill="#AFB1B8"/>
<path d="M73.6287 61.1692C73.3125 60.9022 72.9134 60.7547 72.5004 60.7521C72.2984 60.753 72.0981 60.7891 71.9085 60.8589C71.7159 60.928 71.5382 61.0333 71.3848 61.1692C71.2205 61.3169 71.0894 61.498 71.0003 61.7006C70.9004 61.9324 70.8512 62.183 70.8561 62.4355V66.0744C70.8493 66.3304 70.8985 66.5848 71.0003 66.8195C71.09 67.0152 71.2213 67.1888 71.3848 67.3281C71.5364 67.4689 71.7144 67.5778 71.9085 67.6485C72.0981 67.7183 72.2984 67.7545 72.5004 67.7553C72.7024 67.7549 72.9028 67.7188 73.0924 67.6485C73.2897 67.5768 73.4717 67.4681 73.6287 67.3281C73.7869 67.1862 73.9143 67.0131 74.0031 66.8195C74.1049 66.5848 74.1541 66.3304 74.1473 66.0744V62.4355C74.1521 62.183 74.103 61.9324 74.0031 61.7006C73.9148 61.5001 73.7875 61.3194 73.6287 61.1692ZM73.1657 66.0744C73.1741 66.1714 73.1607 66.2691 73.1266 66.3602C73.0924 66.4513 73.0384 66.5335 72.9684 66.6008C72.8374 66.7107 72.6723 66.7708 72.5017 66.7708C72.3311 66.7708 72.1659 66.7107 72.0349 66.6008C71.965 66.5335 71.911 66.4513 71.8768 66.3602C71.8427 66.2691 71.8293 66.1714 71.8376 66.0744V62.4355C71.8293 62.3386 71.8427 62.2409 71.8768 62.1498C71.911 62.0587 71.965 61.9765 72.0349 61.9092C72.1659 61.7993 72.3311 61.7391 72.5017 61.7391C72.6723 61.7391 72.8374 61.7993 72.9684 61.9092C73.0384 61.9765 73.0924 62.0587 73.1266 62.1498C73.1607 62.2409 73.1741 62.3386 73.1657 62.4355V66.0744Z" fill="#AFB1B8"/>
<path d="M81.3675 67.6994V60.8106H80.4138L79.1616 64.4571H79.1439L77.8816 60.8106H76.938V67.6994H77.9221V63.5086H77.9398L78.9036 66.4711H79.3944L80.3658 63.5086H80.3835V67.6994H81.3675Z" fill="#AFB1B8"/>
<path d="M86.9582 61.2937C86.8067 61.1237 86.6154 60.9943 86.4016 60.9173C86.1713 60.8424 85.9303 60.8063 85.6883 60.8105H84.2261V67.6993H85.2076V65.0089H85.7136C86.0198 65.0228 86.3245 64.958 86.599 64.8207C86.8221 64.6968 87.0082 64.515 87.1378 64.2943C87.2513 64.1111 87.3278 63.9071 87.3629 63.6942C87.4016 63.435 87.4193 63.173 87.4161 62.911C87.4256 62.5802 87.3933 62.2495 87.3199 61.9269C87.2545 61.6885 87.13 61.4706 86.9582 61.2937ZM86.4522 63.3941C86.448 63.5188 86.4169 63.6412 86.3612 63.7527C86.3051 63.8586 86.2163 63.9434 86.1082 63.9942C85.9628 64.0593 85.8042 64.0889 85.6453 64.0807H85.1975V61.7387H85.7034C85.8558 61.7312 86.0077 61.7609 86.1461 61.8251C86.2476 61.8834 86.3282 61.9724 86.3763 62.0794C86.43 62.2004 86.4592 62.331 86.4624 62.4634C86.4624 62.6084 86.4624 62.7609 86.4624 62.9211C86.4624 63.0813 86.4725 63.2466 86.4624 63.3941H86.4522Z" fill="#AFB1B8"/>
<path d="M91.6074 60.8106H90.803L89.2852 67.6994H90.2667L90.5551 66.2194H91.8933L92.1817 67.6994H93.1632L91.6074 60.8106ZM90.7018 65.281L91.185 62.7839H91.2027L91.6833 65.281H90.7018Z" fill="#AFB1B8"/>
<path d="M97.9496 64.9606H97.9319L96.4494 60.8106H95.5059V67.6994H96.4874V63.557H96.5076L98.0078 67.6994H98.9311V60.8106H97.9496V64.9606Z" fill="#AFB1B8"/>
<path d="M103.948 60.8106L103.158 63.5493H103.138L102.349 60.8106H101.309L102.657 64.7877V67.6994H103.639V64.7877L104.987 60.8106H103.948Z" fill="#AFB1B8"/>
<path d="M65 69.6445H65.4731V70.9719H65.7943V69.6445H66.2649V69.3724H65V69.6445Z" fill="#AFB1B8"/>
<path d="M68.9767 69.3724L68.3569 70.9719H68.6984L68.83 70.6083H69.4675L69.6041 70.9719H69.9532L69.3182 69.3724H68.9767ZM68.9261 70.3387L69.1437 69.7462L69.3612 70.3387H68.9261Z" fill="#AFB1B8"/>
<path d="M72.9079 70.3821H73.2773V70.5881C73.1694 70.6746 73.0358 70.722 72.8978 70.7229C72.8333 70.7265 72.7689 70.7145 72.7099 70.688C72.6509 70.6614 72.5991 70.6211 72.5588 70.5703C72.474 70.4485 72.4322 70.3017 72.4399 70.1533C72.4399 69.7973 72.5942 69.6193 72.9003 69.6193C72.9809 69.6112 73.0617 69.6325 73.128 69.6791C73.1944 69.7257 73.2419 69.7947 73.2621 69.8735L73.5783 69.8125C73.51 69.4997 73.2849 69.3421 72.9003 69.3421C72.6947 69.3366 72.4947 69.4103 72.3413 69.5481C72.2607 69.6276 72.1983 69.7239 72.1586 69.8302C72.1188 69.9365 72.1026 70.0502 72.1111 70.1634C72.1017 70.3823 72.1749 70.5966 72.316 70.7636C72.3943 70.8444 72.4892 70.9071 72.594 70.9475C72.6988 70.9879 72.8111 71.0049 72.9231 70.9975C73.1734 71.0045 73.4165 70.9133 73.6011 70.7432V70.1126H72.9079V70.3821Z" fill="#AFB1B8"/>
<path d="M76.9224 69.3724H76.5986V70.9719H77.7193V70.6998H76.9224V69.3724Z" fill="#AFB1B8"/>
<path d="M80.3175 69.3724H79.9937V70.9719H80.3175V69.3724Z" fill="#AFB1B8"/>
<path d="M83.6364 70.4405L82.9812 69.3724H82.6675V70.9719H82.9685V69.9268L83.6111 70.9719H83.9323V69.3724H83.6364V70.4405Z" fill="#AFB1B8"/>
<path d="M86.6368 70.2675H87.4337V69.9954H86.6368V69.6445H87.4944V69.3724H86.313V70.9719H87.5273V70.6998H86.6368V70.2675Z" fill="#AFB1B8"/>
<path d="M93.9121 70.0031H93.2822V69.3724H92.9609V70.9719H93.2822V70.2726H93.9121V70.9719H94.2334V69.3724H93.9121V70.0031Z" fill="#AFB1B8"/>
<path d="M96.9302 70.2675H97.7296V69.9954H96.9302V69.6445H97.7903V69.3724H96.6089V70.9719H97.8206V70.6998H96.9302V70.2675Z" fill="#AFB1B8"/>
<path d="M101.023 70.2677C101.302 70.2244 101.443 70.0769 101.443 69.8227C101.452 69.7546 101.441 69.6857 101.414 69.623C101.386 69.5604 101.342 69.5064 101.287 69.4667C101.142 69.3939 100.98 69.3614 100.819 69.3726H100.141V70.9721H100.462V70.3033H100.525C100.594 70.299 100.662 70.3112 100.725 70.3389C100.772 70.3678 100.811 70.408 100.839 70.4558L101.188 70.9644H101.572L101.378 70.6516C101.292 70.4972 101.17 70.3656 101.023 70.2677ZM100.7 70.0464H100.462V69.6447H100.715C100.825 69.6357 100.936 69.6487 101.041 69.6828C101.065 69.7035 101.083 69.7291 101.095 69.7579C101.107 69.7868 101.113 69.818 101.112 69.8492C101.11 69.8805 101.102 69.911 101.087 69.9386C101.072 69.9661 101.051 69.9899 101.026 70.0083C100.92 70.0407 100.81 70.0536 100.7 70.0464Z" fill="#AFB1B8"/>
<path d="M104.109 70.2675H104.906V69.9954H104.109V69.6445H104.97V69.3724H103.786V70.9719H105V70.6998H104.109V70.2675Z" fill="#AFB1B8"/>
</svg>

<svg width="170" height="90" fill="none" xmlns="http://www.w3.org/2000/svg"><rect x=".5" y=".5" width="169" height="89" rx="3.5" stroke="#AFB1B8"/><path d="M81.977 21.934h.136c.254 0 .527.026.797.049a22.64 22.64 0 013.542.534v-2.863c-1.2-.301-2.422-.496-3.656-.583A29.224 29.224 0 0081.32 19h-.427c-2.475.01-4.94.327-7.337.946-2.73.68-5.35 1.747-7.784 3.166v28.397a31.633 31.633 0 017.42-2.892 32.36 32.36 0 016.228-.956h.084c.352-.018.703-.028 1.065-.03v-2.91a34.329 34.329 0 00-8.095 1.076c-.98.255-1.925.53-2.813.834l-1.012.344V24.833l.432-.208a28.276 28.276 0 0110.516-2.683.63.63 0 01.091 0c.403-.02.808-.03 1.205-.03h.455c.21.005.42.01.63.023z" fill="#AFB1B8"/><path d="M89.111 24.933a25.925 25.925 0 01-4.235-.344 22.97 22.97 0 01-1.323-.267v28.072c1.82.45 3.69.67 5.566.656a29.943 29.943 0 007.336-.944 29.806 29.806 0 007.786-3.166V21.05a31.765 31.765 0 01-7.417 2.893c-2.52.648-5.111.98-7.713.99zm11.224.485l1.012-.34v22.148l-.432.209a27.772 27.772 0 01-5.174 1.859c-2.163.56-4.386.847-6.62.857-.668 0-1.33-.028-1.973-.084l-.693-.061V27.228l.807.054a28.38 28.38 0 001.854.056 34.263 34.263 0 008.406-1.078c.944-.25 1.882-.529 2.813-.842zM67.737 61.212a1.492 1.492 0 00-1.125-.455 1.672 1.672 0 00-.65.122 1.464 1.464 0 00-.832.842c-.08.2-.12.413-.117.628v3.794c-.01.267.042.533.149.778.09.195.219.368.38.509.151.127.33.22.52.27.185.051.376.078.567.078.212.002.42-.043.612-.132a1.599 1.599 0 00.96-1.465v-.424h-.992v.338a.881.881 0 01-.059.338.609.609 0 01-.144.214.697.697 0 01-.415.145.503.503 0 01-.465-.204.898.898 0 01-.132-.508v-3.538c-.006-.196.036-.39.122-.567a.507.507 0 01.485-.229.527.527 0 01.443.214.806.806 0 01.165.509v.328h.981v-.387a1.786 1.786 0 00-.121-.664 1.562 1.562 0 00-.332-.534zM73.629 61.17a1.766 1.766 0 00-1.129-.418c-.202.001-.402.037-.591.107A1.558 1.558 0 0071 61.7c-.1.231-.15.482-.145.735v3.638c-.007.256.043.51.144.746.09.195.221.369.385.508.151.14.33.25.523.32a1.712 1.712 0 001.72-.32c.159-.142.286-.315.375-.508.102-.235.151-.49.144-.746v-3.639a1.772 1.772 0 00-.144-.734 1.643 1.643 0 00-.374-.532zm-.463 4.904a.654.654 0 01-.198.527.726.726 0 01-.933 0 .652.652 0 01-.197-.527v-3.639a.656.656 0 01.197-.526.726.726 0 01.933 0 .651.651 0 01.198.526v3.64zM81.368 67.7v-6.89h-.954l-1.252 3.647h-.018l-1.262-3.646h-.944v6.888h.984v-4.19h.018l.964 2.962h.49l.972-2.962h.017v4.19h.985zM86.958 61.294c-.151-.17-.343-.3-.556-.377a2.184 2.184 0 00-.714-.107h-1.462v6.89h.982v-2.691h.506c.306.014.61-.051.885-.188a1.43 1.43 0 00.539-.527c.113-.183.19-.387.225-.6a4.9 4.9 0 00.053-.783c.01-.33-.023-.662-.096-.984a1.465 1.465 0 00-.362-.633zm-.506 2.1a.868.868 0 01-.09.359.552.552 0 01-.254.241 1.006 1.006 0 01-.463.087h-.447v-2.342h.505a.942.942 0 01.443.086.556.556 0 01.23.254c.054.121.083.252.086.384v.458c0 .16.01.326 0 .473h-.01zM91.607 60.81h-.804l-1.518 6.89h.982l.288-1.48h1.338l.289 1.48h.981l-1.556-6.89zm-.905 4.471l.483-2.497h.018l.48 2.497h-.981zM97.95 64.96h-.018l-1.483-4.15h-.943v6.89h.981v-4.143h.02l1.5 4.142h.924v-6.888h-.981v4.15zM103.948 60.81l-.79 2.74h-.02l-.789-2.74h-1.04l1.348 3.978v2.911h.982v-2.911l1.348-3.977h-1.039zM65 69.644h.473v1.328h.321v-1.328h.47v-.272H65v.272zM68.977 69.372l-.62 1.6h.341l.132-.364h.638l.136.364h.35l-.636-1.6h-.341zm-.05.967l.217-.593.217.593h-.435zM72.908 70.382h.37v.206a.613.613 0 01-.38.135.404.404 0 01-.34-.153.67.67 0 01-.118-.417c0-.356.154-.534.46-.534a.337.337 0 01.362.255l.316-.061c-.068-.313-.293-.47-.678-.47a.804.804 0 00-.559.205.78.78 0 00-.23.615.872.872 0 00.205.6.776.776 0 00.607.234.96.96 0 00.678-.254v-.63h-.693v.27zM76.922 69.372H76.6v1.6h1.12V70.7h-.797v-1.328zM80.317 69.372h-.323v1.6h.323v-1.6zM83.636 70.44l-.655-1.068h-.313v1.6h.3v-1.045l.643 1.045h.321v-1.6h-.296v1.069zM86.637 70.267h.797v-.272h-.797v-.35h.857v-.273h-1.181v1.6h1.214V70.7h-.89v-.433zM93.912 70.003h-.63v-.63h-.321v1.599h.321v-.7h.63v.7h.321v-1.6h-.32v.631zM96.93 70.267h.8v-.272h-.8v-.35h.86v-.273H96.61v1.6h1.212V70.7h-.89v-.433zM101.023 70.268c.279-.044.42-.191.42-.445a.38.38 0 00-.156-.356.904.904 0 00-.468-.094h-.678v1.6h.321v-.67h.063a.429.429 0 01.2.036c.047.029.086.069.114.117l.349.508h.384l-.194-.312a1.112 1.112 0 00-.355-.384zm-.323-.222h-.238v-.401h.253a.836.836 0 01.326.038.2.2 0 01.054.075.22.22 0 01.017.091.215.215 0 01-.086.16.91.91 0 01-.326.037zM104.109 70.267h.797v-.272h-.797v-.35h.861v-.273h-1.184v1.6H105V70.7h-.891v-.433z" fill="#AFB1B8"/></svg>
